X: 7391
T: Cloch Na Ceithre Mhile
R: reel
M: 4/4
K: Adorian
A,2 EA, A,2 EA,|A,2 GE DB,A,B,|G,2 (3B,A,G, DG,B,G,|G,B, B,2 G,B,DB,|
A,2 EA, A,2 AB|cABG AGAB|cABG AGEA|GEDB, G,A,B,G,:|
A2 (3cBA eAcA|E3 E D2 B,G,|(3B,A,G, DG, EG,DG,|(3ded (3BdB (3GAG DA|
A3 A AB (3cde|AGED E2 AB|cABG AGEA|GEDB, G,A,B,G,:|

